X: 93
T:Elsie Marley
M:6/8
L:1/8
K:G
|:Bc"G"B G2G|G2g gdc|BcB G2G|"F"A2=f fcA|
Bc"G"B GBd|gag gdB|"C"cac Bg"G"B|"F"A2=f fcA:|
|:B2"G"c d2d|def g2d|B2c dcB|"F"A2B cBA|
B2"G"c d2d|efg dcB|"C"cac Bg"G"B|"F"A2=f fcA:|
